app/assets/images/social/youtube.svg

<svg width="16" height="16" xmlns="http://www.w3.org/2000/svg">
 <g>
  <title>Layer 1</title>
  <g id="svg_1">
   <path fill="#7f7f7f" id="svg_2" d="m8,0c-4.418,0 -8,3.582 -8,8s3.582,8 8,8s8,-3.582 8,-8c0,-4.419 -3.582,-8 -8,-8zm4.915,9.791c-0.054,0.666 -0.559,1.516 -1.267,1.639c-2.263,0.175 -4.949,0.154 -7.295,0c-0.732,-0.092 -1.213,-0.974 -1.267,-1.639c-0.114,-1.398 -0.114,-2.194 0,-3.592c0.054,-0.665 0.547,-1.542 1.267,-1.622c2.319,-0.195 5.018,-0.153 7.295,0c0.816,0.03 1.213,0.869 1.267,1.535c0.113,1.398 0.113,2.281 0,3.679zm-5.915,0.209l3,-2l-3,-2l0,4z"/>
  </g>
 </g>
</svg>

<?xml version="1.0" encoding="utf-8"?> <!-- Generator: IcoMoon.io --> <!DOCTYPE svg PUBLIC "-//W3C//DTD SVG 1.1//EN" "http://www.w3.org/Graphics/SVG/1.1/DTD/svg11.dtd"> <svg width="16" height="16" viewBox="0 0 16 16" xmlns="http://www.w3.org/2000/svg" xmlns:xlink="http://www.w3.org/1999/xlink" fill="#FFFFFF"><g><path d="M 8,0C 3.582,0,0,3.582,0,8s 3.582,8, 8,8s 8-3.582, 8-8C 16,3.581, 12.418,0, 8,0z M 12.915,9.791 c-0.054,0.666-0.559,1.516-1.267,1.639c-2.263,0.175-4.949,0.154-7.295,0c-0.732-0.092-1.213-0.974-1.267-1.639 c-0.114-1.398-0.114-2.194,0-3.592C 3.14,5.534, 3.633,4.657, 4.353,4.577c 2.319-0.195, 5.018-0.153, 7.295,0 c 0.816,0.030, 1.213,0.869, 1.267,1.535C 13.028,7.51, 13.028,8.393, 12.915,9.791zM 7,10L 10,8L 7,6 z"></path></g></svg>
